svgs/solid/hands-holding.svg

<svg xmlns="http://www.w3.org/2000/svg" viewBox="0 0 640 512"><!-- Font Awesome Pro 6.0.0-alpha2 by @fontawesome - https://fontawesome.com License - https://fontawesome.com/license (Commercial License) --><path d="M216.984 236C205.953 222.25 185.781 219.969 172.016 231C158.203 242.062 155.969 262.188 167.016 276L185.873 306.562C194.773 317.695 193.883 333.734 183.807 343.805C172.021 355.594 152.607 354.516 142.195 341.5L80 256.766V104C80 81.906 62.092 64 40 64S0 81.906 0 104V308.746C0 323.289 4.949 337.395 14.031 348.75L135.016 500C141.082 507.586 150.268 512 159.98 512H256C273.674 512 288 497.672 288 480V358.438C288 336.648 280.586 315.512 266.977 298.5L216.984 236ZM600 64C577.908 64 560 81.906 560 104V256.766L497.805 341.5C487.393 354.516 467.979 355.594 456.193 343.805C446.117 333.734 445.227 317.695 454.127 306.562L472.984 276C484.031 262.188 481.797 242.062 467.984 231C454.219 219.969 434.047 222.25 423.016 236L373.023 298.5C359.414 315.512 352 336.648 352 358.438V480C352 497.672 366.326 512 384 512H480.02C489.732 512 498.918 507.586 504.984 500L625.969 348.75C635.051 337.395 640 323.289 640 308.746V104C640 81.906 622.092 64 600 64Z"/></svg>

<svg xmlns="http://www.w3.org/2000/svg" viewBox="0 0 640 512"><!--! Font Awesome Pro 6.0.0-alpha3 by @fontawesome - https://fontawesome.com License - https://fontawesome.com/license (Commercial License) --><path d="M216.1 236C205.1 222.3 185.8 219.1 172 231c-13.81 11.06-16.05 31.19-5 45l18.86 30.56C194.8 317.7 193.9 333.7 183.8 343.8c-11.79 11.79-31.2 10.71-41.61-2.305L80 256.8V104C80 81.91 62.09 64 40 64S0 81.91 0 104v204.7c0 14.54 4.949 28.65 14.03 40l120.1 151.3C141.1 507.6 150.3 512 159.1 512H256c17.67 0 32.03-14.35 32.03-32.02L288 358.4c0-21.79-7.414-42.93-21.02-59.94L216.1 236zM600 64c-22.09 0-40 17.91-40 40v152.8l-62.2 84.73c-10.41 13.02-29.83 14.09-41.61 2.305c-10.08-10.07-10.97-26.11-2.068-37.24l18.86-30.56c11.05-13.81 8.812-33.94-5-45c-13.77-11.03-33.94-8.75-44.97 5l-49.99 62.5C359.4 315.5 352 336.6 352 358.4l-.0313 121.5C351.1 497.7 366.3 512 384 512h96.02c9.713 0 18.9-4.414 24.96-12l120.1-151.3C635.1 337.4 640 323.3 640 308.7V104C640 81.91 622.1 64 600 64z"/></svg>
